X: 1
T: David's Waltz
C: Debbie Scott
S: handwritten copy in Concord Slow Scottish collection
R: waltz
Z: 2016 John Chambers <jc:trillian.mit.edu>
M: 3/4
L: 1/8
K: D
"(A7)"A A>B |\
"D"d3 d ef | "D/f#"(3(vABA) (F3 A) | ("G"B3 A) (3(FED) | "Bm"F4- FA |\
"G"(vB3 A) (3(FED) | "Em"E2 uF2 zuD | "A"A,6- | "A7"A,3 ||
A AB | "D"d3 d ef |\
"D/f#"(3(ABA) (F3 A) | ("G"B3 A) (3(FED) | "Bm"F4- F"A"A | "G"B2 ud2 zuF | "A"E3 (F/E/ DC) |\
"G/D"D6- | "D"D2 z :|
|: A cd | "Em"e2 (f3 g) | "A"A3 f fe |\
"D"d3 (A F2) | "Bm"B2 "G"uG2 zuB | "D"A2 (F2 D2) | "Em7"E2 (F2 D2) | "A"A6- | A2 z ||
[1 A cd |\
"Em"e2 (f3 g) | "A7"A3 (f2 e) | "D"d3 (A F2) | "G"B2 uG2 zuB |\
"D"A2 (d2 F2) | "Em"E3 (uF/E/ "A"DC) | "D"D6- | "D"D3 :|
[2 A FA |\
"D"d3 d ef | "D"(3(ABA) (F3 A) | ("G"B3 A) (3(FED) | "Bm"F4- F"A"A | "G"B2 ud2 zuF |\
"A"E3 (F/E/ DC) | "G/d"vD6- | "(D)"D3 |]
